X: 34245
T: Reel With The Birl, The
R: reel
M: 4/4
K: Edorian
|:E2 BE DEBE|EDBA AFDF|E2 BE DEBc|1 dedB AFDF:|2 dedB A2 FA||
BABd ~e2 de|fddc d2 ef|g2 gf g2 ag|f2 ab afef|
d2 ba bafe|faab afed|~B3=c BA F2|dedB AFDF||

